X: 15124
T: Gie Us A Drink Of Water
R: slip jig
M: 9/8
K: Dmajor
g|fdd edB Add|fdd dcd e2g|fdd edB Add|gfe fdB A2:|
g|faa f>ef afe|d2f afd e2g|faa f>ef afe|gfe fdB A2
g|faa f>ef afe|d2f afd e2g|fdd edB Add|gfe fdB A2||

